actions/symbolic/folder-new-symbolic.svg

<?xml version="1.0" encoding="UTF-8" standalone="no"?>
<svg
   xmlns:dc="http://purl.org/dc/elements/1.1/"
   xmlns:cc="http://creativecommons.org/ns#"
   xmlns:rdf="http://www.w3.org/1999/02/22-rdf-syntax-ns#"
   xmlns:svg="http://www.w3.org/2000/svg"
   xmlns="http://www.w3.org/2000/svg"
   xmlns:sodipodi="http://sodipodi.sourceforge.net/DTD/sodipodi-0.dtd"
   xmlns:inkscape="http://www.inkscape.org/namespaces/inkscape"
   viewBox="0 0 16 16"
   id="svg3313"
   version="1.1"
   inkscape:version="0.91 r13725"
   sodipodi:docname="folder-new-symbolic.svg">
  <metadata
     id="metadata3321">
    <rdf:RDF>
      <cc:Work
         rdf:about="">
        <dc:format>image/svg+xml</dc:format>
        <dc:type
           rdf:resource="http://purl.org/dc/dcmitype/StillImage" />
      </cc:Work>
    </rdf:RDF>
  </metadata>
  <sodipodi:namedview
     pagecolor="#ffffff"
     bordercolor="#666666"
     borderopacity="1"
     objecttolerance="10"
     gridtolerance="10"
     guidetolerance="10"
     inkscape:pageopacity="0"
     inkscape:pageshadow="2"
     inkscape:window-width="640"
     inkscape:window-height="480"
     id="namedview3319"
     showgrid="false"
     inkscape:zoom="39.8125"
     inkscape:cx="6.0910518"
     inkscape:cy="8"
     inkscape:current-layer="svg3313" />
  <defs
     id="defs3051">
    <style
       type="text/css"
       id="current-color-scheme">
      .ColorScheme-Text {
        color:#bebebe;
      }
      </style>
    <style
       id="current-color-scheme-67"
       type="text/css">
      .ColorScheme-Text {
        color:#bebebe;
      }
      </style>
    <style
       type="text/css"
       id="current-color-scheme-6">
      .ColorScheme-Text {
        color:#bebebe;
      }
      </style>
  </defs>
  <path
     style="color:#bebebe;fill:currentColor;fill-opacity:1;stroke:none"
     d="M 2.2148438,3.000603 C 2.0950597,3.000603 2,3.0965146 2,3.2154324 L 2,11.972658 14,12 14,4.4829256 C 14,4.3640108 13.902983,4.2661432 13.783202,4.2661432 l -6.5058582,0 C 7.0569678,4.2854882 7.0288179,4.2581183 6.9199218,4.1138096 6.7654899,3.9086265 6.5328913,3.3569904 6.3808594,3.1568426 6.2588352,2.9816074 6.2394932,3.000603 6.0371094,3.000603 l -3.8222656,0 z m 5.3847656,3.3005601 0.8007812,0 0,1.5838782 1.5996094,0 0,0.8007277 -1.5996094,0 0,1.615126 -0.8007812,0 0,-1.615126 -1.5996094,0 0,-0.8007277 1.5996094,0 0,-1.5838782 z"
     id="path3317"
     inkscape:connector-curvature="0" />
</svg>

<svg xmlns="http://www.w3.org/2000/svg" viewBox="0 0 16 16">
  <path fill="#bebebe" d="M2.215 3A.214.214 0 0 0 2 3.216v8.758L14 12V4.483a.217.217 0 0 0-.217-.217H7.277c-.22.02-.248-.008-.357-.152-.155-.205-.387-.757-.54-.957C6.26 2.982 6.24 3 6.038 3zM7.6 6.302h.8v1.584H10v.8H8.4v1.616h-.8V8.686H6v-.801h1.6V6.301z"/>
</svg>
